!!!OTL: MAEDCHEN WENN ICH DICH ERBLICKE
!!!ARE: Europa, Mitteleuropa, Deutschland, Brandenburg
!!!SCT: E0566
!!!YEM: Copyright 1995, estate of Helmut Schaffrath.
**kern
*ICvox
*Ivox
*M4/4
*k[b-]
*F:
=1
{4.f
8a
4cc
4cc
=2
4b-
4g
8f
8e
8d
8c}
=3
{8f
8f
8f
8f
4a
4cc
=4
2g
2r}
=5
{4.b-
8g
4dd
8cc
8b-
=6
4a
4a
4cc
8b-
8a}
=7
{8g
8g
8g
8g
4b-
8a
8g
=8
2f
2r}
==
!!!AGN: Liebes - Lied
!!!ONB: ESAC (Essen Associative Code) Database: ERK1
!!!AMT: simple quadruple
!!!AIN: vox
!!!EED: Helmut Schaffrath
!!!EEV: 1.0
*-
